X:1
T:Title
%%score 1 2 3
L:1/8
M:4/2
K:C
V:1 treble nm="Part_1"
V:2 treble nm="Part_2"
V:3 bass nm="Part_3"
V:1
 d8 B6 d2 | e2 d2 c4 B4 d4 | cB AG A4 G8 | z16 | z16 | z4 z2 A2 B>AG>A B>cd/c/d/B/ | ^c2 d2 e4 d8 | %7
 z16 | z4 d4 B6 d/c/d/e/ | c2 B2 A4 G8 | z4 d4 B>cd>c B>AG>F | E2 F2 E4 D8 | z16 | %13
 z4 d4 B/c/B/A/ G/G/F/G/ G/A/B/c/ d>G | A8 G8 | z8 z4 d4- | d2 B2 d4 B8 | z8 z4 z2 d2 | %18
[M:6/2] e8 d4 c8 A4 | B6 A2 G4 A8 ^F4 | G6 ^F2 E4 F8 D4 | E2 D2 E2 ^F2 G2 A2 B2 G2 A8 | G12 z12 | %23
 z24 | z24 | z24 |[M:3/2] z12 |[M:4/2] z4 B>cB>c d4 B4 | d4 B2 d2 c2 B2 A2 G2 | A3 A A4 z8 | z16 | %31
 e4 c2 e2 d2 c2 B2 A2 | B3 B B2 e2 B2 c2 ^G2 A2 | B>c A4 ^G2 A2 B2 A2 =G2 | ^F2 G2 F3 F F4 z2 d2 | %35
 A2 _B2 ^F2 G2 A=BcB A3 G | G8 z4 d4- | d3 c/B/ A4- A3 F E4 | D4 z2 D2 FGAB cABc | dc BA B4 A8 | %40
 z8 z4 z2 e2- | e2 c2 B4 A4 z4 | z4 e4 A2 ^G2 A2 B2 | c4 c2 c2 dc de fe d2 | %44
 e3 e e2 G2 AG AB cB A2 | B3 B B2 B2 ^cB cd ed c2 | d3 d d4 z8 | z16 | z16 | z16 | %50
 z4 z2 c2 cd Bc A2 ^F2 | G3 G G2 B2 ^c2 d4 c2 | d4 z2 d2 de cd B2 A2 | A3 A A6 _B2 A3 G | %54
 G2 d2 d/c/B/c/ d/c/B/A/ B/A/G/A/ B/A/B/c/ d4- | dc/B/ A/G/F/E/ ^F2 G2 A2 G4 F2 | %56
 G4 z2 G2 G/F/E/F/ G/F/E/D/ E/D/C/D/ E/D/E/F/ | %57
[M:31/16] G/A/B/c/ B/c/d/e/ d/c/d/e/ d/c/B/c/ B/A/B/c/ B/c/d/ e4- | %58
[M:6/2] ed/d/ d/d/d/d/ d2 c2 d16 |] %59
V:2
 z16 | z16 | z16 | d8 B6 d2 | e2 d2 c4 B4 d4 | cB AG A4 G8 | z8 z4 z2 A2 | %7
 B>AG>A B>cd/c/d/B/ ^c2 d2 e4 | d8 z8 | z4 d4 B6 d/c/d/e/ | c2 B2 A4 G8 | z8 z4 d4 | %12
 B>cd>c B>AG>F E2 F2 E4 | D8 z8 | z4 d4 B/c/B/A/ G/G/F/G/ G/A/B/c/ d>G | A8 G8 | z8 z4 d4- | %17
 d2 B2 d4 B8 |[M:6/2] z24 | z24 | z24 | z24 | z4 z4 d4 e8 d4 | c8 A4 B6 A2 G4 | A8 ^F4 G6 F2 E4 | %25
 ^F8 D4 E2 D2 E2 F2 G2 A2 |[M:3/2] B2 G2 A8 |[M:4/2] G8 B>cB>c d4 | B4 z4 z8 | z8 d4 B2 d2 | %30
 c2 B2 A2 B2 A3 A A4 | c4 A2 c2 B2 A2 ^G2 A2 | ^G3 G G4 z2 e2 B2 c2 | ^G2 A2 B3 A A2 d2 c2 B2 | %34
 A2 G2 A3 A A2 d2 A2 _B2 | ^F2 G2 ABcB A2 G4 F2 | G8 z8 | z8 z8 | z8 z8 | z8 z4 z2 E2 | %40
 FGAB cABc dc BA B4 | A4 z2 e4 c2 B4 | A8 z8 | z16 | z16 | z16 | z4 d4 A2 ^G2 A2 B2 | %47
 c4 c2 c2 dc de fe d2 | e3 e e2 G2 AG AB cB A2 | B3 B B2 B2 ^cB cd ed c2 | d3 d d2 e2 ef de c2 A2 | %51
 B3 B B2 e2 e4- e3 d | d4 z2 B2 Bc AB G2 E2 | ^F3 F F2 E2 F2 G4 F2 | %54
 G4 z2 d2 d/c/B/c/ d/c/B/A/ B/A/G/A/ B/A/B/c/ | d4- dc/B/ A/G/F/E/ ^F2 G2 A3 G | %56
 G2 G2 G/F/E/F/ G/F/E/D/ E/D/C/D/ E/D/E/F/ G/A/B/c/ B/c/d/e/ | %57
[M:31/16] d/c/d/e/ d/c/B/c/ B/A/B/c/ B/c/d/ e2- e/d/c/B/ c4- |[M:6/2] cB/B/ B/B/B/B/ B2 A2 B16 |] %59
V:3
 G,8 G,,4 G,4 | C2 B,2 A,4 G,4 B,,4 | C,2 E,2 D,4 G,,8 | G,8 G,,4 G,4 | C2 B,2 A,4 G,4 B,,4 | %5
 C,2 E,2 D,4 G,,4 G,4 | A,8 D,8 | G,8 A,8 | D,8 G,,4 B,,4 | A,,2 G,,2 D,4 G,,4 B,,4 | %10
 A,,2 G,,2 D,4 G,,8 | A,,8 D,8 | G,,8 A,,8 | D,8 E,6 B,,2 | D,8 E,6 B,,2 | D,8 G,,8 | G,8 G,,8 | %17
 G,8 G,,4 G,,4 |[M:6/2] C,2 D,2 E,2 F,2 G,4 E,4 A,4 D,4 | G,6 F,2 E,4 F,8 D,4 | %20
 E,6 D,2 ^C,4 D,8 B,,4 | C,2 B,,2 C,2 D,2 E,2 ^F,2 G,8 F,4 | G,8 G,,4 C,2 D,2 E,2 F,2 G,4 | %23
 E,4 A,4 D,4 G,6 F,2 E,4 | F,8 D,4 E,6 D,2 ^C,4 | D,8 B,,4 C,2 B,,2 C,2 D,2 E,2 ^F,2 | %26
[M:3/2] G,8 ^F,4 |[M:4/2] G,8 G,,8 | G,,4 G,,2 G,,2 A,,2 B,,2 C,2 E,2 | D,3 D, D,4 G,,4 G,,2 G,,2 | %30
 A,,2 B,,2 C,2 E,2 D,3 D, D,4 | A,,4 A,,2 A,,2 B,,2 C,2 E,2 F,2 | E,3 E, E,4 E,8 | %33
 E,8 A,,2 G,,2 A,,2 B,,2 | D,2 E,2 D,3 D, D,8 | D,8 C,4 D,4 | G,,8 G,8 | %37
 D,4 D,>E,F,/E,/F,/G,/ A,2 D,2 A,,4 | D,12 A,4 | D,2 F,2 E,4 A,,4 A,,4 | D,4 A,4 D,2 F,2 E,4 | %41
 A,,4 E,4 A,,4 E,4 | A,,4 A,4 F,2 E,2 F,2 G,2 | A,4 A,2 A,2 G,2 E,2 D,2 G,2 | %44
 C,3 C, C,2 E,2 F,2 G,2 A,2 D,2 | G,3 G, G,2 G,2 A,2 ^F,2 G,2 A,2 | D,3 D, D,4 F,2 E,2 F,2 G,2 | %47
 A,4 A,2 A,2 G,2 E,2 D,2 G,2 | C,3 C, C,2 E,2 F,2 G,2 A,2 D,2 | G,3 G, G,2 G,2 A,2 ^F,2 G,2 A,2 | %50
 D,3 D, D,2 A,,2 A,,2 B,,2 C,2 D,2 | G,,3 G,, G,,2 G,,2 A,,6 A,,2 | D,4 G,,4 G,,2 A,,2 B,,2 ^C,2 | %53
 D,3 D, D,2 ^C,2 D,8 | G,,4 G,,4 G,8 | D,12 D,4 | G,,8 C,8- |[M:31/16] C,8 (8:7:1C,4- C,4 | %58
[M:6/2] G,,8 G,,16 |] %59

